favicon.svg

<svg xmlns="http://www.w3.org/2000/svg" width="32" height="32" fill="none" viewBox="0 0 1000 1000"><path fill="#ff2d00" d="m499.968 710.04 35.336 35.336a291.26 291.26 0 0 0 205.959 85.312c0-133.245-108.018-241.296-241.295-241.296S258.672 697.411 258.672 830.688a291.26 291.26 0 0 0 205.959-85.312zM343.282 438.609l-48.285 12.948c-74.595 19.965-138.22 68.791-176.841 135.669 115.417 66.622 262.982 27.076 329.604-88.309 66.623-115.418 27.076-262.982-88.309-329.605a291.25 291.25 0 0 0-29.086 221.012l12.949 48.285zM656.718 438.609l12.948-48.285c19.997-74.627 9.504-154.102-29.117-221.012-115.417 66.623-154.932 214.187-88.309 329.605 66.622 115.417 214.187 154.931 329.604 88.309-38.621-66.91-102.246-115.704-176.841-135.701l-48.285-12.948z"/></svg>

<svg width="1000" height="1000" viewBox="0 0 1000 1000" fill="none" xmlns="http://www.w3.org/2000/svg">
<path d="M499.968 710.04L535.304 745.376C589.935 800.008 664.02 830.688 741.263 830.688C741.263 697.443 633.245 589.392 499.968 589.392C366.691 589.392 258.672 697.411 258.672 830.688C335.915 830.688 410 800.008 464.631 745.376L499.968 710.04Z" fill="#FF2D00"/>
<path d="M343.282 438.609L294.997 451.557C220.402 471.522 156.777 520.348 118.156 587.226C233.573 653.848 381.138 614.302 447.76 498.917C514.383 383.499 474.836 235.935 359.451 169.312C320.83 236.222 310.369 315.697 330.365 390.324L343.314 438.609H343.282Z" fill="#FF2D00"/>
<path d="M656.718 438.609L669.666 390.324C689.663 315.697 679.17 236.222 640.549 169.312C525.132 235.935 485.617 383.499 552.24 498.917C618.862 614.334 766.427 653.848 881.844 587.226C843.223 520.316 779.598 471.522 705.003 451.525L656.718 438.577V438.609Z" fill="#FF2D00"/>
</svg>
